X:0
T:Pretty Saro
M:3/4
L:1/8
Q:1/4=90
K:D
DE|G2 DE DE|G2 A2 AG |E2 D2 GG|D4
DE|G2 D2 DE|G2 A2 dd |B2 G2 B2|A4
G2|A2 d2 dB|A2 G2 A>B|AA G2 E2|D4
D2|E2 A3  B|A2 G2 AG |E2 D2 G2|D4|]
